X: 36559
T: Seven Years
R: waltz
M: 3/4
K: Gmajor
D GA|:"A"B2 B3 A|Bd d2 GA|B2 B2 BA|Bd ed gf|
d2 B2 BA|B2 GA Bd|ed dB BG|1 A3 A GA:|2 A3 G AB||
|:"B"c3 B cd|B2 AG AB|c3B cd|BG gf dB|
c2 cB cd|B2 AG AB|ed dB BG|1 A3 G AB:|2 "To A" A3 A GA||3 "To C" A4 ef||
|:"C"gf ed (3Bcd|e2 ed GA|B2 BG cA|dB ec ef|
gf ed (3Bcd|e2 ed GA|B3A Bd|1 A3 e ef:|2 A4 GA||

